SVG-Logos/Frameworks-Languages-IDEs/Process/prplx master/eslint.svg

<?xml version="1.0" encoding="UTF-8"?>
<svg width="313px" height="76px" viewBox="0 0 313 76" version="1.1" xmlns="http://www.w3.org/2000/svg" xmlns:xlink="http://www.w3.org/1999/xlink">
    <!-- Generator: Sketch 46.2 (44496) - http://www.bohemiancoding.com/sketch -->
    <title>eslint</title>
    <desc>Created with Sketch.</desc>
    <defs></defs>
    <g id="Page-1" stroke="none" stroke-width="1" fill="none" fill-rule="evenodd">
        <g id="Logos" transform="translate(-30.000000, -1819.000000)">
            <g id="eslint" transform="translate(30.000000, 1819.000000)">
                <path d="M25.6735752,27.7586749 L42.3262528,18.1798471 C42.7429823,17.940051 43.2566738,17.940051 43.6734033,18.1798471 L60.3264249,27.7586749 C60.7428105,27.998471 61,28.4414087 61,28.921001 L61,48.0786564 C61,48.5579064 60.7428105,49.0011866 60.3264249,49.2413253 L43.6734033,58.8201529 C43.2566738,59.059949 42.7429823,59.059949 42.3262528,58.8201529 L25.6735752,49.2413253 C25.2568457,49.0015292 25,48.5582487 25,48.0786564 L25,28.921001 C25.0003439,28.4414087 25.2571895,27.998471 25.6735752,27.7586749" id="Shape" fill="#8080F2" fill-rule="nonzero"></path>
                <path d="M85.4681101,36.3025536 L65.9523052,2.14598215 C65.2433998,0.910982144 63.9338475,0 62.516374,0 L23.4840896,0 C22.066279,0 20.7563893,0.910982144 20.047484,2.14598215 L0.531678965,36.227232 C-0.177226322,37.4625715 -0.177226322,39.0215895 0.531678965,40.2569287 L20.047484,74.1335895 C20.7563893,75.3685893 22.066279,76 23.4840896,76 L62.5160368,76 C63.9335103,76 65.2433998,75.3875894 65.9519679,74.1522503 L85.4677729,40.2202856 C86.1773528,38.9856251 86.1773528,37.5375538 85.4681101,36.3025536 L85.4681101,36.3025536 Z M69.3079701,52.727375 C69.3079701,53.2295179 69.007478,53.6940002 68.5747825,53.9454109 L43.7158821,68.3742143 C43.2835242,68.6252858 42.7418962,68.6252858 42.3095382,68.3742143 L17.4314144,53.9454109 C16.9990564,53.6940002 16.6965406,53.2298572 16.6965406,52.727375 L16.6965406,23.8694286 C16.6965406,23.3669465 16.9946721,22.9028036 17.4273674,22.6513929 L42.285256,8.22258929 C42.717614,7.97117857 43.2585674,7.97117857 43.6909253,8.22258929 L68.5707354,22.6513929 C69.003431,22.9028036 69.3079701,23.3669465 69.3079701,23.8694286 L69.3079701,52.727375 L69.3079701,52.727375 Z" id="Shape" fill="#4B32C3" fill-rule="nonzero"></path>
                <path d="M108,74.9602273 L108,18.1193182 L140.64646,18.1193182 L140.64646,24.1846591 L115.168403,24.1846591 L115.168403,42.0340909 L136.67361,42.0340909 L136.67361,48.1860795 L115.168403,48.1860795 L115.168403,68.8082386 L141.510123,68.8082386 L141.510123,74.9602273 L108,74.9602273 Z M165.755061,76 C161.782192,76 158.097267,75.2490605 154.700176,73.7471591 C151.303084,72.2452576 148.36666,70.1946153 145.890813,67.5951705 L150.209128,62.5696023 C152.224352,64.7069236 154.599401,66.4254196 157.334348,67.725142 C160.069294,69.0248645 162.904959,69.6747159 165.841428,69.6747159 C169.583986,69.6747159 172.491622,68.8226884 174.564424,67.118608 C176.637225,65.4145275 177.67361,63.1761502 177.67361,60.4034091 C177.67361,58.9592731 177.428908,57.7317759 176.939497,56.7208807 C176.450085,55.7099855 175.78795,54.8435169 174.953072,54.1214489 C174.118194,53.3993809 173.124991,52.7495294 171.973435,52.171875 C170.821878,51.5942206 169.583974,50.9876926 168.259684,50.3522727 L160.141252,46.7997159 C158.816962,46.2220615 157.463904,45.5288866 156.082036,44.7201705 C154.700169,43.9114543 153.462264,42.9294565 152.368286,41.7741477 C151.274307,40.6188389 150.381864,39.2469303 149.69093,37.6583807 C148.999997,36.0698311 148.654535,34.2358059 148.654535,32.15625 C148.654535,30.0189287 149.100756,28.0260509 149.993212,26.1775568 C150.885669,24.3290627 152.123573,22.7260958 153.706963,21.368608 C155.290353,20.0111201 157.161604,18.9569166 159.320772,18.2059659 C161.479941,17.4550152 163.85499,17.0795455 166.445992,17.0795455 C169.843083,17.0795455 172.981027,17.7293969 175.859918,19.0291193 C178.738809,20.3288417 181.18583,22.0184555 183.201053,24.0980114 L179.31457,28.7769886 C177.587235,27.1017909 175.672802,25.7876468 173.571211,24.834517 C171.469621,23.8813873 169.094572,23.4048295 166.445992,23.4048295 C163.279212,23.4048295 160.731432,24.1413279 158.802575,25.6143466 C156.873718,27.0873653 155.909304,29.1235665 155.909304,31.7230114 C155.909304,33.1093819 156.182794,34.2791146 156.729784,35.2322443 C157.276773,36.1853741 158.010879,37.0229604 158.932124,37.7450284 C159.853369,38.4670964 160.860966,39.1025067 161.954944,39.6512784 C163.048923,40.2000501 164.171674,40.7054901 165.32323,41.1676136 L173.355296,44.6335227 C174.967474,45.326708 176.493264,46.1209709 177.932709,47.0163352 C179.372155,47.9116996 180.610059,48.9514619 181.64646,50.1356534 C182.682861,51.3198449 183.503332,52.7061947 184.107899,54.2947443 C184.712467,55.8832939 185.014746,57.7173191 185.014746,59.796875 C185.014746,62.0497272 184.568524,64.1581341 183.676068,66.1221591 C182.783612,68.0861841 181.502525,69.8046801 179.832768,71.2776989 C178.163011,72.7507176 176.147818,73.9060091 173.787127,74.743608 C171.426436,75.5812068 168.749108,76 165.755061,76 Z M192.677355,74.9602273 L192.677355,18.1193182 L199.845758,18.1193182 L199.845758,68.8082386 L224.632885,68.8082386 L224.632885,74.9602273 L192.677355,74.9602273 Z M230.481802,74.9602273 L230.481802,32.8494318 L237.563839,32.8494318 L237.563839,74.9602273 L230.481802,74.9602273 Z M234.109187,24.1846591 C232.727319,24.1846591 231.561386,23.7514248 230.611352,22.8849432 C229.661318,22.0184616 229.186308,20.9209347 229.186308,19.5923295 C229.186308,18.205959 229.661318,17.0939909 230.611352,16.256392 C231.561386,15.4187932 232.727319,15 234.109187,15 C235.491054,15 236.656988,15.4187932 237.607022,16.256392 C238.557056,17.0939909 239.032066,18.205959 239.032066,19.5923295 C239.032066,20.9209347 238.557056,22.0184616 237.607022,22.8849432 C236.656988,23.7514248 235.491054,24.1846591 234.109187,24.1846591 Z M248.249269,74.9602273 L248.249269,32.8494318 L254.122177,32.8494318 L254.726741,38.9147727 L254.98584,38.9147727 C257.001063,36.8929823 259.117016,35.2033685 261.333762,33.8458807 C263.550508,32.4883928 266.127077,31.8096591 269.063546,31.8096591 C273.497038,31.8096591 276.735742,33.1960089 278.779754,35.96875 C280.823767,38.7414911 281.845758,42.8427759 281.845758,48.2727273 L281.845758,74.9602273 L274.763721,74.9602273 L274.763721,49.2258523 C274.763721,45.2400369 274.130375,42.3662493 272.863663,40.6044034 C271.596951,38.8425575 269.581758,37.9616477 266.818022,37.9616477 C264.630065,37.9616477 262.701237,38.5104112 261.03148,39.6079545 C259.361724,40.7054979 257.461684,42.322906 255.331305,44.4602273 L255.331305,74.9602273 L248.249269,74.9602273 Z M305.227033,76 C302.981498,76 301.095853,75.6534126 299.570041,74.9602273 C298.044229,74.267042 296.806324,73.3139265 295.85629,72.1008523 C294.906256,70.887778 294.229727,69.4147814 293.826682,67.6818182 C293.423637,65.948855 293.222118,64.042624 293.222118,61.9630682 L293.222118,38.6548295 L287.003745,38.6548295 L287.003745,33.2826705 L293.567583,32.8494318 L294.431246,21.0653409 L300.390521,21.0653409 L300.390521,32.8494318 L311.704506,32.8494318 L311.704506,38.6548295 L300.390521,38.6548295 L300.390521,62.0497159 C300.390521,64.6491607 300.865531,66.6564797 301.815565,68.071733 C302.765599,69.4869862 304.449725,70.1946023 306.867993,70.1946023 C307.616505,70.1946023 308.422582,70.0790731 309.286249,69.8480114 C310.149917,69.6169496 310.927205,69.357009 311.618139,69.0681818 L313,74.4403409 C311.848444,74.844699 310.596145,75.2057276 309.243066,75.5234375 C307.889987,75.8411474 306.551323,76 305.227033,76 Z" id="ESLint" fill="#4B4B4B"></path>
            </g>
        </g>
    </g>
</svg>

<svg xmlns="http://www.w3.org/2000/svg" viewBox="0 0 313 76"><g fill="none" fill-rule="evenodd"><path fill="#8080F2" fill-rule="nonzero" d="m25.674 27.759 16.652-9.58c.417-.239.93-.239 1.347 0l16.653 9.58c.417.24.674.682.674 1.162v19.158c0 .479-.257.922-.674 1.162l-16.653 9.58c-.416.239-.93.239-1.347 0l-16.652-9.58A1.342 1.342 0 0 1 25 48.08V28.92c0-.48.257-.923.674-1.162"/><path fill="#4B32C3" fill-rule="nonzero" d="M85.468 36.303 65.952 2.146C65.243.911 63.934 0 62.516 0H23.484c-1.418 0-2.728.911-3.437 2.146L.532 36.227a4.084 4.084 0 0 0 0 4.03l19.515 33.877c.71 1.235 2.02 1.866 3.437 1.866h39.032c1.418 0 2.727-.612 3.436-1.848L85.468 40.22a3.872 3.872 0 0 0 0-3.917Zm-16.16 16.424c0 .503-.3.967-.733 1.218l-24.86 14.43a1.407 1.407 0 0 1-1.405 0L17.43 53.944c-.432-.251-.734-.715-.734-1.218V23.87c0-.502.298-.966.73-1.218L42.285 8.223a1.404 1.404 0 0 1 1.406 0L68.57 22.65c.432.252.737.716.737 1.218v28.858Z"/><path fill="#4B4B4B" d="M108 74.96V18.12h32.646v6.065h-25.478v17.85h21.506v6.151h-21.506v20.622h26.342v6.152H108ZM165.755 76c-3.973 0-7.658-.75-11.055-2.253-3.397-1.502-6.333-3.552-8.81-6.152l4.32-5.025c2.014 2.137 4.39 3.855 7.124 5.155 2.735 1.3 5.571 1.95 8.507 1.95 3.743 0 6.65-.852 8.723-2.556 2.073-1.704 3.11-3.943 3.11-6.716 0-1.444-.245-2.671-.735-3.682a8.015 8.015 0 0 0-1.986-2.6c-.835-.722-1.828-1.371-2.98-1.95a236.041 236.041 0 0 0-3.713-1.819L160.14 46.8a38.66 38.66 0 0 1-4.059-2.08 16.713 16.713 0 0 1-3.714-2.946c-1.094-1.155-1.986-2.527-2.677-4.116-.691-1.588-1.036-3.422-1.036-5.502 0-2.137.446-4.13 1.338-5.978a14.688 14.688 0 0 1 3.714-4.81c1.583-1.357 3.455-2.411 5.614-3.162 2.159-.751 4.534-1.126 7.125-1.126 3.397 0 6.535.65 9.414 1.95 2.879 1.299 5.326 2.988 7.341 5.068l-3.886 4.679c-1.728-1.675-3.642-2.99-5.744-3.942-2.101-.954-4.476-1.43-7.125-1.43-3.167 0-5.715.736-7.643 2.21-1.93 1.472-2.894 3.509-2.894 6.108 0 1.386.274 2.556.82 3.51a8.659 8.659 0 0 0 2.203 2.512 17.875 17.875 0 0 0 3.023 1.906 44.328 44.328 0 0 0 3.368 1.517l8.032 3.466a34.307 34.307 0 0 1 4.578 2.382c1.44.896 2.677 1.935 3.713 3.12 1.037 1.184 1.857 2.57 2.462 4.159.604 1.588.907 3.422.907 5.502 0 2.253-.446 4.361-1.339 6.325-.892 1.964-2.173 3.683-3.843 5.156-1.67 1.473-3.685 2.628-6.046 3.466-2.36.837-5.038 1.256-8.032 1.256Zm26.922-1.04V18.12h7.169v50.688h24.787v6.152h-31.956Zm37.805 0V32.85h7.082v42.11h-7.082Zm3.627-50.775c-1.382 0-2.548-.434-3.498-1.3-.95-.867-1.425-1.964-1.425-3.293 0-1.386.475-2.498 1.425-3.336.95-.837 2.116-1.256 3.498-1.256 1.382 0 2.548.419 3.498 1.256.95.838 1.425 1.95 1.425 3.336 0 1.329-.475 2.426-1.425 3.293-.95.866-2.116 1.3-3.498 1.3Zm14.14 50.775V32.85h5.873l.605 6.065h.259c2.015-2.022 4.131-3.712 6.348-5.07 2.217-1.357 4.793-2.035 7.73-2.035 4.433 0 7.672 1.386 9.716 4.159 2.044 2.772 3.066 6.874 3.066 12.304V74.96h-7.082V49.226c0-3.986-.634-6.86-1.9-8.622-1.267-1.761-3.282-2.642-6.046-2.642-2.188 0-4.117.548-5.787 1.646-1.67 1.097-3.57 2.715-5.7 4.852v30.5h-7.082ZM305.227 76c-2.246 0-4.131-.347-5.657-1.04-1.526-.693-2.764-1.646-3.714-2.86-.95-1.212-1.626-2.685-2.03-4.418-.402-1.733-.604-3.64-.604-5.719V38.655h-6.218v-5.372l6.564-.434.863-11.784h5.96V32.85h11.314v5.806H300.39V62.05c0 2.6.475 4.606 1.425 6.022.95 1.415 2.634 2.123 5.052 2.123.749 0 1.555-.116 2.418-.347a18.378 18.378 0 0 0 2.332-.78L313 74.44a36.627 36.627 0 0 1-3.757 1.083 17.524 17.524 0 0 1-4.016.477Z"/></g></svg>
